X:1

T:Road to Sligo [2]

M:9/8

L:1/8

R:Slip Jig

S:Kerr – Merry Melodies, vol. 4, No. 242  (c. 1880’s)

Z:AK/Fiddler’s Companion

K:Bb

FGF D2E F3 | GAG E2F GAB | FGF D2E F3 | c2c c2B AGF :|

|: Bcd dfc d3 | Bcd dfd cAF | Bcd dfc d3 | c2c c2B AGF :|

|: BcB ABA G3 | d2G G2A Bcd | BcB ABA G3 | g3d2c BAG :|


           

ROAD TO SKYE. AKA and see "Paddy's Resource [1]," "The Rover [2]." Canadian, Irish; Jig. Canada; Prince Edward Island, Cape Breton. A Major (Dunlay, Perlman) or G Major (Dunlay). Standard. AABB. "Kitty of Coleraine" is a closely related tune. The tune is played in both ‘A’ and ‘G’ major on Cape Breton.  Sources for notated versions: Buddy MacMaster (Cape Breton) [Dunlay & Greenberg, Dunlay & Reich]; Donna Hebert (Mass.) [Phillips]; Allan MacDonald (b. 1950, Bangor, North-East Kings County, Prince Edward Island) [Perlman]. Dunlay & Greenberg (Traditional Celtic Violin Music from Cape Breton), 1996; pg. 105. Dunlay & Reich (Traditional Celtic Fiddle Music from Cape Breton), 1986; pg. 69. Hinds/Hebert (Grumbling Old Woman), 1981; pg. 23. Perlman (The Fiddle Music of Prince Edward Island), 1996; pg. 142. Phillips (Traditional American Fiddle Tunes), vol. 2, 1995; pg. 377. Glencoe GMI‑001, "Cape Breton Symphony". Rodeo 118, Joe MacLean (78 RPM).

           

ROAD TO THE GLENS.  Irish, Jig. D Major. Standard. AABB. Compare with “Andy McGann’s (Jig) [2].” Miller (Fiddler’s Throne), 2004; No. 92, pg. 65. Treoir, vol. 19, No. 1, 1987.

